src/icons/astro.svg

<svg width="55" height="69" viewBox="0 0 55 69" fill="none" xmlns="http://www.w3.org/2000/svg">
<g clip-path="url(#clip0_67_352)">
<path d="M17.852 58.7702C14.7242 55.9208 13.8111 49.9337 15.1142 45.5962C17.3737 48.3309 20.5045 49.1972 23.7474 49.6862C28.7537 50.4408 33.6703 50.1586 38.3209 47.8782C38.8529 47.6171 39.3445 47.2699 39.9259 46.9183C40.3622 48.18 40.4758 49.4537 40.3234 50.7502C39.9528 53.9075 38.3762 56.3464 35.8685 58.1952C34.8658 58.9347 33.8048 59.5958 32.7691 60.293C29.5875 62.4361 28.7268 64.949 29.9223 68.604C29.9507 68.6937 29.9761 68.7826 30.0404 69C28.4159 68.2751 27.2293 67.2201 26.3253 65.8331C25.3703 64.3694 24.916 62.75 24.8921 60.9978C24.8801 60.1451 24.8801 59.2848 24.7651 58.4442C24.4841 56.3947 23.5187 55.4771 21.7 55.4242C19.8335 55.3699 18.3571 56.5199 17.9655 58.331C17.9356 58.4698 17.8923 58.6072 17.8489 58.7687L17.852 58.7702Z" fill="white"/>
<path d="M17.852 58.7702C14.7242 55.9208 13.8111 49.9337 15.1142 45.5962C17.3737 48.3309 20.5045 49.1972 23.7474 49.6862C28.7537 50.4408 33.6703 50.1586 38.3209 47.8782C38.8529 47.6171 39.3445 47.2699 39.9259 46.9183C40.3622 48.18 40.4758 49.4537 40.3234 50.7502C39.9528 53.9075 38.3762 56.3464 35.8685 58.1952C34.8658 58.9347 33.8048 59.5958 32.7691 60.293C29.5875 62.4361 28.7268 64.949 29.9223 68.604C29.9507 68.6937 29.9761 68.7826 30.0404 69C28.4159 68.2751 27.2293 67.2201 26.3253 65.8331C25.3703 64.3694 24.916 62.75 24.8921 60.9978C24.8801 60.1451 24.8801 59.2848 24.7651 58.4442C24.4841 56.3947 23.5187 55.4771 21.7 55.4242C19.8335 55.3699 18.3571 56.5199 17.9655 58.331C17.9356 58.4698 17.8923 58.6072 17.8489 58.7687L17.852 58.7702Z" fill="url(#paint0_linear_67_352)"/>
<path d="M0 44.8736C0 44.8736 9.26194 40.3771 18.5498 40.3771L25.5524 18.7786C25.8146 17.7341 26.5801 17.0242 27.4443 17.0242C28.3085 17.0242 29.074 17.7341 29.3362 18.7786L36.3389 40.3771C47.3389 40.3771 54.8886 44.8736 54.8886 44.8736C54.8886 44.8736 39.1564 2.16178 39.1257 2.07609C38.6742 0.813297 37.9119 0 36.8842 0H18.006C16.9783 0 16.2468 0.813297 15.7646 2.07609C15.7305 2.16017 0 44.8736 0 44.8736Z" fill="#1E1E1E"/>
</g>
<defs>
<linearGradient id="paint0_linear_67_352" x1="14.5395" y1="69" x2="44.7033" y2="54.6994" gradientUnits="userSpaceOnUse">
<stop stop-color="#D83333"/>
<stop offset="1" stop-color="#F041FF"/>
</linearGradient>
<clipPath id="clip0_67_352">
<rect width="55" height="69" fill="white"/>
</clipPath>
</defs>
</svg>

<svg xmlns="http://www.w3.org/2000/svg" width="55" height="69" fill="none"><g clip-path="url(#a)"><path fill="#fff" d="M17.852 58.77c-3.128-2.85-4.04-8.836-2.738-13.174 2.26 2.735 5.39 3.601 8.633 4.09 5.007.755 9.923.473 14.574-1.808.532-.26 1.023-.608 1.605-.96a8.507 8.507 0 0 1 .397 3.832c-.37 3.157-1.947 5.596-4.455 7.445-1.002.74-2.063 1.4-3.099 2.098-3.181 2.143-4.042 4.656-2.847 8.311.029.09.054.179.118.396-1.624-.725-2.81-1.78-3.715-3.167-.955-1.464-1.409-3.083-1.433-4.835-.012-.853-.012-1.713-.127-2.554-.28-2.05-1.246-2.967-3.065-3.02-1.866-.054-3.343 1.096-3.735 2.907-.03.139-.073.276-.116.438l.003.001"/><path fill="url(#b)" d="M17.852 58.77c-3.128-2.85-4.04-8.836-2.738-13.174 2.26 2.735 5.39 3.601 8.633 4.09 5.007.755 9.923.473 14.574-1.808.532-.26 1.023-.608 1.605-.96a8.507 8.507 0 0 1 .397 3.832c-.37 3.157-1.947 5.596-4.455 7.445-1.002.74-2.063 1.4-3.099 2.098-3.181 2.143-4.042 4.656-2.847 8.311.029.09.054.179.118.396-1.624-.725-2.81-1.78-3.715-3.167-.955-1.464-1.409-3.083-1.433-4.835-.012-.853-.012-1.713-.127-2.554-.28-2.05-1.246-2.967-3.065-3.02-1.866-.054-3.343 1.096-3.735 2.907-.03.139-.073.276-.116.438l.003.001"/><path fill="#1E1E1E" d="M0 44.874s9.262-4.497 18.55-4.497l7.002-21.598c.263-1.045 1.028-1.755 1.892-1.755.864 0 1.63.71 1.892 1.755l7.003 21.598c11 0 18.55 4.497 18.55 4.497S39.156 2.162 39.126 2.076C38.674.813 37.912 0 36.884 0H18.006c-1.028 0-1.76.813-2.241 2.076C15.73 2.16 0 44.874 0 44.874"/></g><defs><linearGradient id="b" x1="14.54" x2="44.703" y1="69" y2="54.699" gradientUnits="userSpaceOnUse"><stop stop-color="#D83333"/><stop offset="1" stop-color="#F041FF"/></linearGradient><clipPath id="a"><path fill="#fff" d="M0 0h55v69H0z"/></clipPath></defs></svg>
